X:1
T:Colonel Robertson of Strewan's Welcome Home
T:Colonel Robertson of Strewan's Welcome Home
T:Niel Gow
C:Niel Gow
L:1/8
M:6/8
K:Emin
V:1 treble 
V:1
 B, | TE2 .e (G2 .e) | TF2 D AFD | TE2 e (G2 e) | TB>^c^d e2 e/f/ | Tg>fe d^cB | (AF).d DEF | %7
 TE2 e G>AB | B,^C^D E2 :| B | (e2 b) Tg2 e | Tf2 d (af).d | e2 b g2 b | TB>^c^d e2 e/f/ | %14
 Tg>fe d^cB | (AF).d DEF | TE2 e G>AB | B,^C^D E2 B | (e2 b) Tg2 e | Tf2 d (af).d | e2 b g2 b | %21
 TB>^c^d e2 e/f/ | Tg>fe d^cB | (AF).d DEF | TE2 e G>AB | B,^C^D E2 || %26

